resources/haticons/SVG/delete_sweep.svg

<!-- Generated by IcoMoon.io -->
<svg version="1.1" xmlns="http://www.w3.org/2000/svg" width="24" height="24" viewBox="0 0 24 24">
<title>delete_sweep</title>
<path d="M14.016 5.016v1.969h-12v-1.969h3l0.984-1.031h3.984l1.031 1.031h3zM3 18v-9.984h9.984v9.984q0 0.797-0.586 1.406t-1.383 0.609h-6q-0.797 0-1.406-0.609t-0.609-1.406zM15 12h6v2.016h-6v-2.016zM15 8.016h6.984v1.969h-6.984v-1.969zM15 15.984h3.984v2.016h-3.984v-2.016z"></path>
</svg>

<svg xmlns="http://www.w3.org/2000/svg" width="24" height="24"><path d="M14.016 5.016v1.969h-12V5.016h3L6 3.985h3.984l1.031 1.031h3zM3 18V8.016h9.984V18q0 .797-.586 1.406t-1.383.609h-6q-.797 0-1.406-.609T3 18zm12-6h6v2.016h-6V12zm0-3.984h6.984v1.969H15V8.016zm0 7.968h3.984V18H15v-2.016z"/></svg>
